X:18400
T:Waltz De Vauxhall. CJF.077
M:3/4
L:1/8
Q:100
S: C.J.Fox MS, 1829/33, Beverley,E.Yorks.
R:Waltz
O:England
A:East Yorkshire
B:Kidson Coll.Mitchell Lib.M1805
Z:P J Headford 2000
K:D
fg|aa^gaba|ff^efgf|f2eAdf|b2aAdf|!\
aa^gaba|ff^efgf|f2eAce|d4:|:!
cd|(fe).^d.e(cA)|(fe).^d.e(cA)|(ba).^g.a(ge)|!\
(ba).^g.a(ge)|(fe)^decA|fe^decA|ba^gage|d4:|]


